ir/camera.svg

<svg stroke-width="1.5" viewBox="0 0 24 24" fill="none" xmlns="http://www.w3.org/2000/svg" height="1em" width="1em">
  <path d="M2 19V9C2 7.89543 2.89543 7 4 7H4.5C5.12951 7 5.72229 6.70361 6.1 6.2L8.32 3.24C8.43331 3.08892 8.61115 3 8.8 3H15.2C15.3889 3 15.5667 3.08892 15.68 3.24L17.9 6.2C18.2777 6.70361 18.8705 7 19.5 7H20C21.1046 7 22 7.89543 22 9V19C22 20.1046 21.1046 21 20 21H4C2.89543 21 2 20.1046 2 19Z" stroke="currentColor" stroke-linecap="round" stroke-linejoin="round"/>
  <path d="M12 17C14.2091 17 16 15.2091 16 13C16 10.7909 14.2091 9 12 9C9.79086 9 8 10.7909 8 13C8 15.2091 9.79086 17 12 17Z" stroke="currentColor" stroke-linecap="round" stroke-linejoin="round"/>
</svg>

<svg stroke-width="1.5" viewBox="0 0 24 24" fill="none" xmlns="http://www.w3.org/2000/svg" height="1em" width="1em">
  <path d="M2 19V9a2 2 0 0 1 2-2h.5a2 2 0 0 0 1.6-.8l2.22-2.96A.6.6 0 0 1 8.8 3h6.4a.6.6 0 0 1 .48.24L17.9 6.2a2 2 0 0 0 1.6.8h.5a2 2 0 0 1 2 2v10a2 2 0 0 1-2 2H4a2 2 0 0 1-2-2Z" stroke="currentColor" stroke-linecap="round" stroke-linejoin="round"/>
  <path d="M12 17a4 4 0 1 0 0-8 4 4 0 0 0 0 8Z" stroke="currentColor" stroke-linecap="round" stroke-linejoin="round"/>
</svg>
